projects/ccf-eui/src/assets/icons/organ-icons/organ-icon-pancreas.svg

<svg width="64" height="64" viewBox="0 0 64 64" fill="currentColor" xmlns="http://www.w3.org/2000/svg">
<g clip-path="url(#clip0_1795_346)">
<path d="M56.7253 16.6827C56.8245 16.3819 56.8392 16.0597 56.7677 15.7512C56.6962 15.4427 56.5413 15.1598 56.3199 14.9333C56.5381 14.6607 56.6584 14.3225 56.6613 13.9733C56.6853 13.5641 56.5631 13.1596 56.3164 12.8321C56.0697 12.5047 55.7146 12.2757 55.3145 12.1859C54.9145 12.0962 54.4956 12.1516 54.1327 12.3422C53.7697 12.5329 53.4864 12.8464 53.3333 13.2267C53.1139 13.1384 52.8789 13.0956 52.6424 13.1007C52.406 13.1059 52.1731 13.1589 51.9577 13.2566C51.7424 13.3543 51.5491 13.4947 51.3895 13.6692C51.2299 13.8437 51.1074 14.0488 51.0293 14.272C50.8244 14.1947 50.6082 14.1514 50.3893 14.144C49.9661 14.1466 49.5585 14.3044 49.2439 14.5876C48.9294 14.8707 48.7296 15.2594 48.6826 15.68H48.4053C47.9393 15.68 47.4922 15.8636 47.1607 16.191C46.8293 16.5185 46.6402 16.9634 46.6346 17.4293C46.6475 17.597 46.6834 17.7621 46.7413 17.92C46.5021 17.8015 46.2401 17.736 45.9733 17.728C45.5477 17.73 45.1375 17.8871 44.8194 18.1698C44.5013 18.4526 44.2972 18.8416 44.2453 19.264C43.9526 19.0348 43.593 18.9075 43.2213 18.9013C42.7891 18.9045 42.3734 19.0676 42.0544 19.3591C41.7353 19.6506 41.5354 20.0499 41.4933 20.48C41.3365 20.2709 41.1338 20.1006 40.9007 19.9822C40.6677 19.8639 40.4106 19.8006 40.1493 19.7973C39.7936 19.799 39.4466 19.9078 39.1536 20.1094C38.8606 20.3111 38.6352 20.5963 38.5066 20.928C38.207 20.6791 37.8295 20.5432 37.4399 20.544C37.1761 20.5502 36.917 20.6147 36.681 20.7327C36.4449 20.8507 36.2379 21.0194 36.0746 21.2267C35.9253 20.9808 35.7156 20.7772 35.4654 20.6353C35.2153 20.4934 34.9329 20.4179 34.6453 20.416C34.3803 20.416 34.119 20.4777 33.882 20.5962C33.6451 20.7147 33.4389 20.8867 33.2799 21.0987C33.1349 20.8162 32.9148 20.5791 32.6438 20.4135C32.3729 20.2479 32.0615 20.1602 31.7439 20.16C31.3799 20.1634 31.0259 20.2804 30.7315 20.4945C30.437 20.7087 30.2167 21.0093 30.1013 21.3547C29.8606 21.2429 29.5986 21.1847 29.3333 21.184C29.077 21.1864 28.8247 21.2472 28.5955 21.3618C28.3663 21.4764 28.1663 21.6418 28.0106 21.8453C27.8109 21.6437 27.5651 21.4938 27.2945 21.4083C27.0239 21.3229 26.7365 21.3046 26.4573 21.355C26.178 21.4054 25.9152 21.523 25.6915 21.6976C25.4678 21.8722 25.29 22.0986 25.1733 22.3573C25.0476 22.0297 24.8252 21.748 24.5356 21.5498C24.246 21.3517 23.9029 21.2464 23.5519 21.248C23.1231 21.2506 22.7102 21.4107 22.3916 21.6978C22.073 21.9849 21.871 22.3791 21.8239 22.8053C21.6734 22.7475 21.5154 22.7116 21.3546 22.6987C20.8907 22.6987 20.4457 22.883 20.1176 23.211C19.7896 23.5391 19.6053 23.984 19.6053 24.448C19.573 24.6315 19.573 24.8192 19.6053 25.0027C19.4022 24.9192 19.1849 24.8758 18.9653 24.8747C18.5013 24.8747 18.0564 25.059 17.7283 25.387C17.4003 25.7151 17.2159 26.16 17.2159 26.624C17.2204 26.9695 17.3322 27.305 17.5359 27.584C17.07 27.584 16.6228 27.7676 16.2914 28.095C15.9599 28.4225 15.7709 28.8674 15.7653 29.3333C15.7727 29.5522 15.816 29.7684 15.8933 29.9733C15.4841 29.979 15.0902 30.1296 14.7817 30.3985C14.4732 30.6674 14.2701 31.0371 14.2087 31.4417C14.1472 31.8462 14.2314 32.2595 14.4461 32.6079C14.6608 32.9563 14.9922 33.2171 15.3813 33.344C14.841 34.1044 14.5502 35.0139 14.5493 35.9467C14.5497 36.638 14.7181 37.3188 15.0399 37.9307C16.3138 36.2898 17.704 34.7427 19.1999 33.3013C19.2776 32.4843 19.5246 31.6923 19.9253 30.976C19.8386 30.4104 19.8386 29.8349 19.9253 29.2693C19.9849 28.8786 20.1468 28.5106 20.3946 28.2027C20.6339 27.9612 20.8288 27.6796 20.9706 27.3707C21.1133 26.9043 21.2133 26.4258 21.2693 25.9413C21.2814 26.4626 21.2457 26.9839 21.1626 27.4987C21.0653 27.7927 20.9052 28.0621 20.6933 28.288C20.4317 28.5768 20.274 28.9447 20.2453 29.3333C20.2206 29.6742 20.2206 30.0164 20.2453 30.3573C20.5948 29.8096 21.0798 29.3614 21.6533 29.056C22.1773 28.8062 22.6538 28.4669 23.0613 28.0533C23.7226 27.0507 24.7679 25.3227 24.7679 25.3227C24.418 26.3939 23.9828 27.4355 23.4666 28.4373C23.1123 28.9051 22.6611 29.2907 22.1439 29.568C21.4737 29.9006 20.9605 30.4827 20.7146 31.1893C20.5209 31.6139 20.3708 32.0571 20.2666 32.512C21.4614 31.4497 22.7463 30.4932 24.1066 29.6533C26.0528 28.4708 28.2402 27.7417 30.5066 27.52H31.1679C31.3086 27.1612 31.4725 26.8121 31.6586 26.4747C31.8979 26.0192 32.2699 25.6473 32.7253 25.408L33.5999 24.832C34.0504 24.3162 34.4175 23.7332 34.6879 23.104C34.5363 23.7108 34.3143 24.2979 34.0266 24.8533C33.75 25.1879 33.4091 25.4636 33.0239 25.664C32.5822 25.877 32.2387 26.2511 32.0639 26.7093C32.0639 26.9867 31.8933 27.2213 31.8293 27.456H31.9999C33.8975 27.3953 35.7875 27.1885 37.6533 26.8373C38.9033 26.5344 40.1032 26.053 41.2159 25.408C41.6723 24.6585 42.1859 23.9452 42.7519 23.2747C43.2953 22.8402 43.9084 22.5011 44.5653 22.272C44.0624 22.5375 43.5963 22.8674 43.1786 23.2533C42.7966 23.7571 42.5142 24.3291 42.3466 24.9387C44.7307 23.8165 46.9842 22.4358 49.0666 20.8213C49.0666 20.8213 41.7919 28.2667 32.8106 28.5227H31.9786C32.2812 28.7245 32.5945 28.9096 32.9173 29.0773C33.5876 29.381 34.3446 29.434 35.0506 29.2267C35.4133 29.0987 36.0746 28.6933 36.5866 28.8427C37.4794 28.9569 38.386 28.8009 39.1893 28.3947C39.1893 28.3947 37.5679 29.568 36.5439 29.248C36.1599 29.1413 35.3706 29.6747 35.0293 29.76C34.2732 30.0032 33.46 30.0032 32.7039 29.76C32.0407 29.4704 31.4171 29.0976 30.8479 28.6507C28.5194 28.8196 26.2927 29.6731 24.4479 31.104C23.1893 32.064 22.1013 32.896 21.1413 33.728C21.7274 33.8944 22.327 34.0086 22.9333 34.0693C23.7368 34.1403 24.5391 33.9208 25.1946 33.4507C25.4719 33.1947 25.8559 32.576 26.3679 32.512C27.4346 32.4053 28.5013 30.9973 28.5013 30.9973C28.5013 30.9973 27.5839 32.7467 26.5173 32.8533C26.1119 32.8533 25.5786 33.8347 25.3013 34.048C24.7059 34.4564 23.9963 34.6656 23.2746 34.6453C22.3427 34.6648 21.4136 34.5352 20.5226 34.2613C18.818 35.6488 17.3359 37.2891 16.1279 39.1253C16.8906 39.8032 17.861 40.2019 18.8799 40.256C18.8799 40.6304 18.954 41.0011 19.0979 41.3467C19.2419 41.6924 19.4528 42.0061 19.7185 42.2699C19.9842 42.5336 20.2996 42.7422 20.6463 42.8835C20.993 43.0248 21.3642 43.0961 21.7386 43.0933C22.2071 43.0888 22.6671 42.9674 23.0769 42.7401C23.4867 42.5129 23.8333 42.187 24.0853 41.792C24.4556 41.9542 24.8544 42.0412 25.2586 42.048C25.8279 42.0466 26.3837 41.8753 26.855 41.5561C27.3263 41.2368 27.6915 40.7841 27.9039 40.256C28.2037 40.3727 28.5211 40.4377 28.8426 40.448C29.6064 40.448 30.339 40.1446 30.8791 39.6045C31.4192 39.0644 31.7226 38.3318 31.7226 37.568C31.7125 37.139 31.6106 36.7171 31.4239 36.3307C31.7496 36.1686 32.0238 35.9191 32.2159 35.6102C32.408 35.3013 32.5105 34.9451 32.5119 34.5813C32.5219 34.482 32.5219 34.382 32.5119 34.2827C32.6184 34.2927 32.7255 34.2927 32.8319 34.2827C33.3361 34.2887 33.8227 34.0984 34.189 33.752C34.5553 33.4056 34.7725 32.9303 34.7946 32.4267C35.1264 32.6795 35.5295 32.8214 35.9466 32.832C36.3901 32.8281 36.8192 32.6742 37.1639 32.3953C37.5087 32.1164 37.7489 31.7289 37.8453 31.296C37.9936 31.5617 38.2103 31.7829 38.4729 31.9367C38.7354 32.0904 39.0343 32.1712 39.3386 32.1707C39.7708 32.1675 40.1865 32.0044 40.5055 31.7129C40.8246 31.4214 41.0245 31.0221 41.0666 30.592C41.2367 30.6126 41.4086 30.6126 41.5786 30.592C41.8846 30.5882 42.184 30.5033 42.4464 30.3459C42.7088 30.1884 42.9247 29.9642 43.0719 29.696C43.3734 29.9418 43.7497 30.0773 44.1386 30.08C44.5237 30.0765 44.8966 29.9444 45.198 29.7048C45.4995 29.4652 45.7123 29.1317 45.8026 28.7573C46.0045 28.8447 46.2226 28.8883 46.4426 28.8853C46.6723 28.8853 46.8998 28.8401 47.1121 28.7522C47.3243 28.6643 47.5171 28.5354 47.6796 28.373C47.842 28.2105 47.9709 28.0177 48.0588 27.8054C48.1467 27.5932 48.1919 27.3657 48.1919 27.136C48.2143 26.9589 48.2143 26.7797 48.1919 26.6027C48.3754 26.635 48.5631 26.635 48.7466 26.6027C49.1927 26.6035 49.6222 26.4339 49.9473 26.1286C50.2725 25.8232 50.4687 25.4052 50.4959 24.96C50.6308 24.9719 50.7664 24.9719 50.9013 24.96C51.3652 24.96 51.8102 24.7757 52.1382 24.4476C52.4663 24.1196 52.6506 23.6746 52.6506 23.2107C53.0578 23.1453 53.4287 22.9382 53.6981 22.626C53.9674 22.3137 54.1178 21.9163 54.1226 21.504C54.1226 21.504 54.1226 21.376 54.1226 21.312C54.5027 21.2293 54.8432 21.0193 55.0876 20.7167C55.3321 20.414 55.4658 20.037 55.4666 19.648C55.5365 19.5012 55.6005 19.3518 55.6586 19.2C55.856 19.0119 56.0027 18.7771 56.0853 18.5173C56.1488 18.2508 56.1488 17.9732 56.0853 17.7067C56.0853 17.7067 56.0853 17.536 56.0853 17.4507C56.3696 17.2633 56.5923 16.9961 56.7253 16.6827Z" />
<path d="M47.3814 34.816C46.1232 33.5749 44.5764 32.6659 42.88 32.1707C42.8448 32.6635 42.6577 33.1333 42.3444 33.5153C42.0311 33.8974 41.6071 34.1729 41.1307 34.304C40.8452 34.3256 40.5584 34.2895 40.2871 34.1978C40.0159 34.1062 39.7659 33.9609 39.552 33.7707C39.4454 35.1573 37.632 35.392 36.608 35.0507H36.16C36.1722 35.1855 36.1722 35.3212 36.16 35.456C36.1477 35.9458 35.9995 36.4226 35.7321 36.8332C35.4647 37.2438 35.0884 37.572 34.6454 37.7813C34.9112 38.2881 35.0503 38.8517 35.0507 39.424C35.0396 39.9339 34.9282 40.4366 34.7227 40.9035C34.5173 41.3703 34.2219 41.7921 33.8534 42.1447C33.4849 42.4974 33.0506 42.774 32.5752 42.9587C32.0998 43.1434 31.5926 43.2327 31.0827 43.2213C30.6304 43.2124 30.183 43.1258 29.76 42.9653C29.4549 43.683 28.943 44.2936 28.2895 44.7192C27.6359 45.1447 26.8705 45.3659 26.0907 45.3547C25.5326 45.3531 24.9807 45.2369 24.4694 45.0133C24.1072 45.547 23.6211 45.985 23.0526 46.2897C22.4842 46.5943 21.8503 46.7566 21.2054 46.7627C20.6955 46.774 20.1883 46.6847 19.7129 46.5C19.2375 46.3153 18.8031 46.0387 18.4346 45.6861C18.0662 45.3334 17.7708 44.9116 17.5653 44.4448C17.3599 43.978 17.2484 43.4752 17.2374 42.9653C15.6863 42.9434 14.2045 42.3189 13.1056 41.224C12.0068 40.1291 11.3769 38.6497 11.3494 37.0987C11.3524 35.8594 11.7566 34.6545 12.5014 33.664C12.0633 33.5862 11.6606 33.3734 11.3494 33.0554C11.0383 32.7374 10.8344 32.3301 10.7662 31.8904C10.698 31.4508 10.769 31.0009 10.9692 30.6035C11.1694 30.2062 11.4888 29.8815 11.8827 29.6747C11.8827 29.504 11.8827 29.3333 11.8827 29.1627C11.8389 28.4897 11.9553 27.8159 12.2223 27.1966C12.4893 26.5774 12.8993 26.0302 13.4187 25.6C13.6463 25.4012 13.906 25.2425 14.1867 25.1307C13.2694 25.1307 12.0534 24.064 11.456 22.4853C11.1072 21.933 10.9221 21.2932 10.9221 20.64C10.9221 19.9868 11.1072 19.347 11.456 18.7947C10.2529 19.1333 9.14834 19.7551 8.2347 20.608C7.17483 21.7972 6.35985 23.1837 5.83638 24.6883C5.31291 26.1928 5.09123 27.7857 5.18403 29.376C5.10014 32.5752 5.65924 35.7588 6.82821 38.738C7.99717 41.7172 9.75222 44.4315 11.9894 46.72C14.0899 48.8329 16.9065 50.0813 19.8827 50.2187H20.1814C28.1387 50.3893 31.68 45.952 34.24 42.56C36.3734 39.7227 37.3974 38.6987 39.488 38.6987C44.608 38.6987 44.6507 47.936 44.6507 48.4053C44.6984 48.8359 44.8308 49.2528 45.0402 49.632C45.2496 50.0112 45.532 50.3453 45.8711 50.615C46.2101 50.8846 46.5992 51.0846 47.0158 51.2033C47.4324 51.322 47.8684 51.3571 48.2987 51.3067C51.392 51.3067 51.9894 49.1733 51.9894 48.512C51.9894 47.8507 52.2027 39.5947 47.3814 34.816Z" />
<path d="M15.3036 24.4848C16.184 24.1164 16.3445 22.4961 15.6622 20.8658C14.9799 19.2355 13.7132 18.2126 12.8328 18.581C11.9524 18.9494 11.7919 20.5697 12.4742 22.2C13.1565 23.8303 14.4233 24.8533 15.3036 24.4848Z" />
</g>
<defs>
<clipPath id="clip0_1795_346">
<rect width="64" height="64" />
</clipPath>
</defs>
</svg>

<svg xmlns="http://www.w3.org/2000/svg" width="64" height="64" fill="currentColor" viewBox="0 0 64 64"><g clip-path="url(#a)"><path d="M56.725 16.683a1.73 1.73 0 0 0-.405-1.75c.218-.272.338-.61.341-.96a1.729 1.729 0 0 0-3.328-.746 1.75 1.75 0 0 0-2.304 1.045 2 2 0 0 0-.64-.128 1.73 1.73 0 0 0-1.706 1.536h-.278a1.77 1.77 0 0 0-1.77 1.75q.02.252.106.49a1.86 1.86 0 0 0-.768-.192 1.75 1.75 0 0 0-1.728 1.536 1.7 1.7 0 0 0-1.024-.363 1.75 1.75 0 0 0-1.728 1.579 1.7 1.7 0 0 0-1.344-.683 1.77 1.77 0 0 0-1.642 1.131 1.66 1.66 0 0 0-1.067-.384 1.8 1.8 0 0 0-1.365.683 1.69 1.69 0 0 0-1.43-.811 1.7 1.7 0 0 0-1.365.683 1.73 1.73 0 0 0-1.536-.939 1.75 1.75 0 0 0-1.643 1.195 1.8 1.8 0 0 0-.768-.171 1.69 1.69 0 0 0-1.322.661 1.75 1.75 0 0 0-2.838.512 1.73 1.73 0 0 0-2.781-.66 1.75 1.75 0 0 0-.568 1.108 1.7 1.7 0 0 0-.47-.106 1.75 1.75 0 0 0-1.749 1.749 1.6 1.6 0 0 0 0 .555 1.7 1.7 0 0 0-.64-.128 1.75 1.75 0 0 0-1.75 1.749c.005.346.117.681.32.96a1.77 1.77 0 0 0-1.77 1.75q.012.329.128.64a1.728 1.728 0 0 0-.512 3.37c-.54.76-.83 1.67-.832 2.603 0 .691.17 1.372.49 1.984a43 43 0 0 1 4.16-4.63 5.9 5.9 0 0 1 .726-2.325 5.6 5.6 0 0 1 0-1.707c.06-.39.222-.758.47-1.066.239-.242.434-.523.576-.832q.213-.702.298-1.43a8.5 8.5 0 0 1-.106 1.558 2.1 2.1 0 0 1-.47.789c-.261.289-.419.657-.448 1.045q-.036.512 0 1.024c.35-.547.835-.996 1.408-1.301.524-.25 1-.59 1.408-1.003.662-1.002 1.707-2.73 1.707-2.73a21 21 0 0 1-1.301 3.114 4.1 4.1 0 0 1-1.323 1.131 2.86 2.86 0 0 0-1.43 1.621 7 7 0 0 0-.447 1.323 27.6 27.6 0 0 1 3.84-2.859 15.2 15.2 0 0 1 6.4-2.133h.66q.212-.539.492-1.045c.239-.456.61-.828 1.066-1.067l.875-.576a6.6 6.6 0 0 0 1.088-1.728 8 8 0 0 1-.661 1.75c-.277.334-.618.61-1.003.81a1.92 1.92 0 0 0-.96 1.045c0 .278-.17.512-.235.747H32a37 37 0 0 0 5.654-.619c1.25-.303 2.45-.784 3.563-1.429q.685-1.126 1.536-2.133a6.1 6.1 0 0 1 1.813-1.003 6.6 6.6 0 0 0-1.386.981 5 5 0 0 0-.832 1.686 36 36 0 0 0 6.72-4.118s-7.275 7.446-16.256 7.702h-.832q.453.302.938.554c.67.304 1.428.357 2.134.15.362-.128 1.024-.534 1.536-.384.892.114 1.799-.042 2.602-.448 0 0-1.621 1.173-2.645.853-.384-.107-1.173.427-1.515.512a3.8 3.8 0 0 1-2.325 0 8.5 8.5 0 0 1-1.856-1.11 11.84 11.84 0 0 0-6.4 2.454c-1.259.96-2.347 1.792-3.307 2.624q.881.25 1.792.341a3.37 3.37 0 0 0 2.262-.618c.277-.256.66-.875 1.173-.939 1.067-.107 2.133-1.515 2.133-1.515s-.917 1.75-1.984 1.856c-.405 0-.938.982-1.216 1.195a3.4 3.4 0 0 1-2.026.597 8.7 8.7 0 0 1-2.752-.384 21.5 21.5 0 0 0-4.395 4.864 4.5 4.5 0 0 0 2.752 1.131 2.84 2.84 0 0 0 2.859 2.837 2.82 2.82 0 0 0 2.346-1.301c.37.162.77.25 1.174.256a2.86 2.86 0 0 0 2.645-1.792c.3.117.617.182.939.192a2.88 2.88 0 0 0 2.88-2.88 3 3 0 0 0-.3-1.237 1.96 1.96 0 0 0 1.089-1.75q.015-.149 0-.298.16.015.32 0a1.94 1.94 0 0 0 1.963-1.856c.331.252.734.394 1.152.405a1.96 1.96 0 0 0 1.898-1.536 1.7 1.7 0 0 0 1.494.875 1.75 1.75 0 0 0 1.728-1.579q.256.03.512 0a1.73 1.73 0 0 0 1.493-.896c.301.246.678.381 1.067.384a1.73 1.73 0 0 0 1.664-1.323c.202.088.42.131.64.128a1.75 1.75 0 0 0 1.749-1.749 2.1 2.1 0 0 0 0-.533 1.6 1.6 0 0 0 .555 0 1.75 1.75 0 0 0 1.749-1.643q.203.018.405 0a1.75 1.75 0 0 0 1.75-1.75 1.75 1.75 0 0 0 1.472-1.706v-.192a1.71 1.71 0 0 0 1.344-1.664q.104-.22.192-.448c.197-.188.344-.423.426-.683a1.75 1.75 0 0 0 0-.81v-.256c.285-.188.507-.455.64-.768"/><path d="M47.381 34.816a10.67 10.67 0 0 0-4.501-2.645 2.39 2.39 0 0 1-1.75 2.133 2.13 2.13 0 0 1-1.578-.533c-.107 1.386-1.92 1.621-2.944 1.28h-.448q.018.202 0 .405a2.65 2.65 0 0 1-1.515 2.325c.266.507.405 1.07.406 1.643a3.88 3.88 0 0 1-3.968 3.797 4 4 0 0 1-1.323-.256 3.93 3.93 0 0 1-3.67 2.39 4.1 4.1 0 0 1-1.62-.342 3.99 3.99 0 0 1-3.265 1.75 3.884 3.884 0 0 1-3.968-3.798A5.974 5.974 0 0 1 11.35 37.1a5.74 5.74 0 0 1 1.152-3.435 2.134 2.134 0 0 1-.618-3.99v-.511a4.27 4.27 0 0 1 1.536-3.563c.227-.199.487-.358.768-.47-.918 0-2.134-1.066-2.731-2.645a3.46 3.46 0 0 1 0-3.69 7.8 7.8 0 0 0-3.221 1.813 12.12 12.12 0 0 0-3.051 8.768 23.92 23.92 0 0 0 6.805 17.344 11.9 11.9 0 0 0 7.894 3.499h.298c7.958.17 11.499-4.267 14.059-7.659 2.133-2.837 3.157-3.861 5.248-3.861 5.12 0 5.163 9.237 5.163 9.706a3.286 3.286 0 0 0 3.648 2.902c3.093 0 3.69-2.134 3.69-2.795s.214-8.917-4.608-13.696"/><path d="M15.304 24.485c.88-.369 1.04-1.989.358-3.62-.682-1.63-1.949-2.652-2.83-2.284-.88.368-1.04 1.989-.358 3.619s1.95 2.653 2.83 2.285"/></g><defs><clipPath id="a"><path d="M0 0h64v64H0z"/></clipPath></defs></svg>
